X:1
T: The Spaniard
N:
C:
S:
A:
O:
R:
M:6/8
K:G
I:speed 160
%W:         A1
% voice 1 (1 lines, 22 notes)
K:G
M:6/8
L:1/16
G6 D6 B6 G6 B2 A2 B2 c4 B2 A6 D6 |d6 c6 B6 A6 G2 G2 G2 A4 F2 G6 G6 |
%W:         A2
% voice 1 (1 lines, 22 notes)
G6 D6 B6 G6 B2 A2 B2 c4 B2 A6 D6 |d6 c6 B6 A6 G2 G2 G2 A4 F2 G6 G6 |
%W:         B1
% voice 1 (1 lines, 31 notes)
b6 b2 a2 g2 a4 f2 g4 e2 d6 d2 c2 B2 c4 B2 A4 F2 |b6 b2 a2 g2 a4 f2 g4 e2 d6 d2 c2 B2 c4 A2 G6 |
%W:         B2
% voice 1 (1 lines, 31 notes)
b6 b2 a2 g2 a4 f2 g4 e2 d6 d2 c2 B2 c4 B2 A4 F2 |b6 b2 a2 g2 a4 f2 g4 e2 d6 d2 c2 B2 c4 A2 G6 ||
